Catalina-light/actions/22/svn-commit.svg

<svg xmlns="http://www.w3.org/2000/svg" viewBox="0 0 22 22">
  <defs id="defs3051">
    <style type="text/css" id="current-color-scheme">
      .ColorScheme-Text {
        color:#4d4d4d;
      }
      .ColorScheme-Highlight {
        color:#3daee9;
      }
      </style>
  </defs>
 <path 
     style="fill:currentColor;fill-opacity:1;stroke:none" 
     d="M 10.5 3 C 9.84576 3 9.2977969 3.41808 9.0917969 4 L 5 4 L 4 4 L 4 5 L 4 16.091797 C 3.41808 16.297797 3 16.84576 3 17.5 C 3 18.331 3.669 19 4.5 19 C 5.331 19 6 18.331 6 17.5 C 6 16.84576 5.58192 16.297797 5 16.091797 L 5 5 L 9.0917969 5 C 9.2421369 5.4247 9.5753 5.7578631 10 5.9082031 L 10 12 L 10 13 L 11 13 L 11.091797 13 C 11.297797 13.58192 11.84576 14 12.5 14 C 13.331 14 14 13.331 14 12.5 C 14 11.669 13.331 11 12.5 11 C 11.84576 11 11.297797 11.41808 11.091797 12 L 11 12 L 11 5.9082031 C 11.58192 5.7022031 12 5.15424 12 4.5 C 12 3.669 11.331 3 10.5 3 z M 10.5 4 C 10.777 4 11 4.223 11 4.5 C 11 4.777 10.777 5 10.5 5 C 10.223 5 10 4.777 10 4.5 C 10 4.223 10.223 4 10.5 4 z M 12.5 12 C 12.777 12 13 12.223 13 12.5 C 13 12.777 12.777 13 12.5 13 C 12.223 13 12 12.777 12 12.5 C 12 12.223 12.223 12 12.5 12 z M 16.5 13 L 16.292969 13.207031 L 13 16.5 L 13.707031 17.207031 L 16 14.914062 L 16 19.207031 L 17 19.207031 L 17 14.914062 L 19.292969 17.207031 L 20 16.5 L 16.707031 13.207031 L 16.5 13 z M 4.5 17 C 4.777 17 5 17.223 5 17.5 C 5 17.777 4.777 18 4.5 18 C 4.223 18 4 17.777 4 17.5 C 4 17.223 4.223 17 4.5 17 z "
     class="ColorScheme-Text"
     />
</svg>

<svg viewBox="0 0 22 22" xmlns="http://www.w3.org/2000/svg">
<defs>
<style id="current-color-scheme" type="text/css">.ColorScheme-Text {
        color:#363636;
      }
      .ColorScheme-Highlight {
        color:#3daee9;
      }</style>
</defs>
<path class="ColorScheme-Text" d="m10.5 3c-0.65424 0-1.2022 0.41808-1.4082 1h-4.0918-1v1 11.092c-0.58192 0.206-1 0.75396-1 1.4082 0 0.831 0.669 1.5 1.5 1.5s1.5-0.669 1.5-1.5c0-0.65424-0.41808-1.2022-1-1.4082v-11.092h4.0918c0.15034 0.4247 0.4835 0.75786 0.9082 0.9082v6.0918 1h1 0.091797c0.206 0.58192 0.75396 1 1.4082 1 0.831 0 1.5-0.669 1.5-1.5s-0.669-1.5-1.5-1.5c-0.65424 0-1.2022 0.41808-1.4082 1h-0.091797v-6.0918c0.58192-0.206 1-0.75396 1-1.4082 0-0.831-0.669-1.5-1.5-1.5zm0 1c0.277 0 0.5 0.223 0.5 0.5s-0.223 0.5-0.5 0.5-0.5-0.223-0.5-0.5 0.223-0.5 0.5-0.5zm2 8c0.277 0 0.5 0.223 0.5 0.5s-0.223 0.5-0.5 0.5-0.5-0.223-0.5-0.5 0.223-0.5 0.5-0.5zm4 1-3.5 3.5 0.70703 0.70703 2.293-2.293v4.293h1v-4.293l2.293 2.293 0.70703-0.70703-3.5-3.5zm-12 4c0.277 0 0.5 0.223 0.5 0.5s-0.223 0.5-0.5 0.5-0.5-0.223-0.5-0.5 0.223-0.5 0.5-0.5z" fill="#363636"/>
</svg>
